src/images/GeneFit/Survey7.svg

<svg width="1186" height="77" viewBox="0 0 1186 77" fill="none" xmlns="http://www.w3.org/2000/svg">
<path d="M32.288 29H30.584L26.336 36.464L22.016 29H20.288L25.52 37.976V44H27.056V37.976L32.288 29ZM33.5356 38.552V38.672C33.6076 41.192 35.0956 42.92 37.3756 42.92C38.5756 42.92 39.6316 42.608 40.5676 42.008L40.8556 43.376C39.8476 44 38.6716 44.312 37.3276 44.312C34.1836 44.312 32.0236 41.984 32.0236 38.6C32.0236 36.872 32.5276 35.456 33.5116 34.352C34.4956 33.248 35.7196 32.696 37.2076 32.696C39.6556 32.696 41.2156 34.28 41.2156 36.752C41.2156 37.4 41.1436 37.976 40.9756 38.504L33.5356 38.552ZM33.6316 37.376L39.7276 37.352C39.7516 37.28 39.7516 37.112 39.7516 36.872C39.7516 35.144 38.8156 34.04 37.1116 34.04C35.2156 34.04 33.8956 35.456 33.6316 37.376ZM50.6171 41C50.6171 42.992 48.9371 44.312 46.6811 44.312C45.3131 44.312 44.1131 43.976 43.0811 43.328L43.4891 41.96C44.4971 42.632 45.5771 42.968 46.7291 42.968C48.1211 42.968 49.2011 42.272 49.2011 41.12C49.2011 40.856 49.1531 40.64 49.0331 40.424C48.9131 40.208 48.7691 40.04 48.6491 39.92C48.5291 39.8 48.2891 39.68 47.9771 39.536C47.6651 39.392 47.4251 39.296 47.2811 39.248C47.1371 39.2 46.8491 39.104 46.4411 38.984C44.5211 38.408 43.2491 37.592 43.2491 35.864C43.2491 33.896 44.8091 32.696 46.9691 32.696C48.1451 32.696 49.2491 32.96 50.3051 33.512L49.8731 34.856C48.8891 34.304 47.8811 34.04 46.8731 34.04C45.5291 34.04 44.6651 34.664 44.6651 35.72C44.6651 35.96 44.7131 36.176 44.8331 36.368C44.9531 36.584 45.0731 36.728 45.1931 36.848C45.3131 36.968 45.5291 37.112 45.8411 37.232C46.1291 37.352 46.3691 37.448 46.5371 37.52C46.7051 37.592 46.9931 37.664 47.3771 37.784C49.3691 38.36 50.6171 39.176 50.6171 41Z" fill="#FBFBFB"/>
<path d="M481.168 41.864L472.648 29H470.92V44H472.408V31.16L481 44.144H482.656V29H481.168V41.864ZM496.321 38.48C496.321 40.208 495.817 41.6 494.785 42.68C493.753 43.76 492.481 44.312 490.921 44.312C489.361 44.312 488.089 43.784 487.105 42.728C486.121 41.672 485.617 40.28 485.617 38.528C485.617 36.8 486.145 35.384 487.177 34.304C488.209 33.224 489.481 32.696 491.041 32.696C492.601 32.696 493.873 33.224 494.857 34.28C495.841 35.336 496.321 36.728 496.321 38.48ZM494.857 38.528C494.857 35.816 493.321 34.04 490.969 34.04C488.665 34.04 487.105 35.84 487.105 38.48C487.105 41.192 488.641 42.968 490.993 42.968C493.297 42.968 494.857 41.168 494.857 38.528Z" fill="#FBFBFB"/>
<path d="M26.48 65.92C28.76 66.28 30.008 67.888 30.008 69.712C30.008 71.176 29.48 72.352 28.448 73.192C27.392 74.056 26.072 74.488 24.488 74.488C22.784 74.488 21.416 74.176 20.432 73.576L20.792 71.728C21.728 72.376 22.976 72.688 24.512 72.688C26.6 72.688 27.944 71.68 27.944 69.856C27.944 68.248 26.672 67.408 24.68 67.336C24.08 67.312 23.336 67.384 22.472 67.528V65.824C25.712 65.08 27.32 63.928 27.32 62.392C27.32 60.952 26.336 60.16 24.608 60.16C23.552 60.16 22.4 60.616 21.152 61.552L20.456 59.872C21.776 58.84 23.24 58.312 24.824 58.312C27.728 58.312 29.48 59.848 29.48 62.104C29.48 63.808 28.184 65.248 26.48 65.92ZM37.3406 61.888C38.6846 61.336 39.3566 60.424 39.3566 59.176C39.3566 57.64 38.2046 56.656 36.6206 56.656C34.8206 56.656 33.7646 57.616 33.7646 58.936C33.7646 59.224 33.8366 59.488 33.9806 59.752C34.1246 60.016 34.2926 60.208 34.4606 60.376C34.6286 60.544 34.9166 60.736 35.3246 60.952C35.7086 61.168 36.0206 61.312 36.2366 61.408C36.4526 61.528 36.8366 61.672 37.3406 61.888ZM35.9006 63.232C34.4126 63.712 33.5246 64.744 33.5246 66.088C33.5246 67.6 34.8206 68.608 36.6446 68.608C38.5406 68.608 39.5726 67.792 39.5726 66.352C39.5726 66.088 39.5246 65.848 39.4526 65.632C39.3806 65.416 39.2366 65.2 39.0206 64.984C38.8046 64.768 38.6126 64.6 38.4686 64.48C38.3246 64.36 38.0606 64.216 37.6526 64.024C37.2446 63.832 36.9806 63.712 36.8606 63.64C36.7166 63.568 36.4046 63.448 35.9006 63.232ZM38.8286 62.56C40.6766 63.496 41.5886 64.672 41.5886 66.112C41.5886 68.512 39.7406 70.36 36.5486 70.36C33.3086 70.36 31.5326 68.656 31.5326 66.304C31.5326 64.504 32.9726 62.968 34.4126 62.584C32.7326 61.72 31.7726 60.76 31.7726 59.152C31.7726 56.632 33.6686 54.904 36.7166 54.904C39.7406 54.904 41.3486 56.68 41.3486 58.96C41.3486 60.64 40.1726 62.008 38.8286 62.56ZM45.2114 67.288C45.6434 67.288 46.0034 67.432 46.2914 67.72C46.5794 68.032 46.7234 68.392 46.7234 68.8C46.7234 69.208 46.5794 69.568 46.2914 69.88C46.0034 70.192 45.6434 70.36 45.2114 70.36C44.7554 70.36 44.3954 70.192 44.1074 69.88C43.7954 69.568 43.6514 69.208 43.6514 68.8C43.6514 68.392 43.7954 68.032 44.1074 67.72C44.3954 67.432 44.7554 67.288 45.2114 67.288ZM50.5865 64.84C51.3785 64.768 51.9545 64.72 52.2905 64.72C55.4345 64.72 57.4505 66.52 57.4505 69.328C57.4505 70.84 56.9465 72.088 55.9385 73.048C54.9065 74.008 53.6585 74.488 52.1705 74.488C50.5625 74.488 49.1705 74.152 47.9945 73.456L48.3545 71.512C49.6745 72.256 50.9705 72.616 52.1945 72.616C54.0905 72.616 55.4345 71.344 55.4345 69.424C55.4345 67.744 54.1385 66.424 52.0505 66.424C50.9945 66.424 50.0105 66.568 49.0985 66.832L48.5705 66.352L49.5545 58.648H57.0425L57.1145 60.592H51.1625L50.5865 64.84ZM66.1556 58.432C66.1556 60.64 64.5956 62.392 62.1716 62.392C59.7956 62.392 58.1876 60.64 58.1876 58.432C58.1876 57.304 58.5476 56.368 59.2916 55.576C60.0116 54.808 60.9716 54.424 62.1716 54.424C63.3716 54.424 64.3316 54.808 65.0756 55.576C65.7956 56.344 66.1556 57.304 66.1556 58.432ZM73.4756 54.664L61.5236 70.36H60.0116L71.9636 54.664H73.4756ZM75.2756 66.592C75.2756 67.72 74.9156 68.656 74.1956 69.424C73.4516 70.216 72.4916 70.6 71.2916 70.6C70.0916 70.6 69.1316 70.216 68.4116 69.448C67.6676 68.68 67.3076 67.72 67.3076 66.592C67.3076 64.384 68.8916 62.632 71.2916 62.632C73.6676 62.632 75.2756 64.384 75.2756 66.592ZM64.8596 58.432C64.8596 57.64 64.6196 56.992 64.1396 56.464C63.6356 55.936 62.9876 55.672 62.1716 55.672C61.3556 55.672 60.7076 55.936 60.2276 56.464C59.7236 56.992 59.4836 57.64 59.4836 58.432C59.4836 59.176 59.7236 59.824 60.2276 60.352C60.7076 60.88 61.3556 61.144 62.1716 61.144C62.9876 61.144 63.6356 60.88 64.1396 60.352C64.6196 59.824 64.8596 59.176 64.8596 58.432ZM73.9796 66.592C73.9796 65.848 73.7396 65.2 73.2596 64.672C72.7556 64.144 72.1076 63.88 71.2916 63.88C70.4756 63.88 69.8276 64.144 69.3476 64.672C68.8436 65.2 68.6036 65.848 68.6036 66.592C68.6036 67.384 68.8436 68.032 69.3476 68.56C69.8276 69.088 70.4756 69.352 71.2916 69.352C72.1076 69.352 72.7556 69.088 73.2596 68.56C73.7396 68.032 73.9796 67.384 73.9796 66.592Z" fill="#FBFBFB"/>
<path d="M470.032 64.12C470.032 61.936 470.752 59.968 472.168 58.216C473.584 56.488 475.6 55.312 478.264 54.688L478.864 56.56C475.144 57.496 472.912 59.368 472.168 62.176L472.216 62.2C473.296 61.216 474.568 60.712 476.032 60.712C478.504 60.712 480.424 62.608 480.424 65.368C480.424 68.272 478.408 70.36 475.312 70.36C473.656 70.36 472.384 69.76 471.448 68.56C470.512 67.384 470.032 65.896 470.032 64.12ZM472.12 64.744C472.12 66.856 473.416 68.536 475.408 68.536C477.232 68.536 478.432 67.288 478.432 65.464C478.432 63.664 477.232 62.464 475.504 62.464C474.208 62.464 472.984 63.064 472.24 63.736C472.168 64.024 472.12 64.36 472.12 64.744ZM485.239 70H487.183V58.288L482.383 59.872L482.455 61.672L485.239 60.784V70ZM491.821 67.288C492.253 67.288 492.613 67.432 492.901 67.72C493.189 68.032 493.333 68.392 493.333 68.8C493.333 69.208 493.189 69.568 492.901 69.88C492.613 70.192 492.253 70.36 491.821 70.36C491.365 70.36 491.005 70.192 490.717 69.88C490.405 69.568 490.261 69.208 490.261 68.8C490.261 68.392 490.405 68.032 490.717 67.72C491.005 67.432 491.365 67.288 491.821 67.288ZM497.196 64.84C497.988 64.768 498.564 64.72 498.9 64.72C502.044 64.72 504.06 66.52 504.06 69.328C504.06 70.84 503.556 72.088 502.548 73.048C501.516 74.008 500.268 74.488 498.78 74.488C497.172 74.488 495.78 74.152 494.604 73.456L494.964 71.512C496.284 72.256 497.58 72.616 498.804 72.616C500.7 72.616 502.044 71.344 502.044 69.424C502.044 67.744 500.748 66.424 498.66 66.424C497.604 66.424 496.62 66.568 495.708 66.832L495.18 66.352L496.164 58.648H503.652L503.724 60.592H497.772L497.196 64.84ZM512.765 58.432C512.765 60.64 511.205 62.392 508.781 62.392C506.405 62.392 504.797 60.64 504.797 58.432C504.797 57.304 505.157 56.368 505.901 55.576C506.621 54.808 507.581 54.424 508.781 54.424C509.981 54.424 510.941 54.808 511.685 55.576C512.405 56.344 512.765 57.304 512.765 58.432ZM520.085 54.664L508.133 70.36H506.621L518.573 54.664H520.085ZM521.885 66.592C521.885 67.72 521.525 68.656 520.805 69.424C520.061 70.216 519.101 70.6 517.901 70.6C516.701 70.6 515.741 70.216 515.021 69.448C514.277 68.68 513.917 67.72 513.917 66.592C513.917 64.384 515.501 62.632 517.901 62.632C520.277 62.632 521.885 64.384 521.885 66.592ZM511.469 58.432C511.469 57.64 511.229 56.992 510.749 56.464C510.245 55.936 509.597 55.672 508.781 55.672C507.965 55.672 507.317 55.936 506.837 56.464C506.333 56.992 506.093 57.64 506.093 58.432C506.093 59.176 506.333 59.824 506.837 60.352C507.317 60.88 507.965 61.144 508.781 61.144C509.597 61.144 510.245 60.88 510.749 60.352C511.229 59.824 511.469 59.176 511.469 58.432ZM520.589 66.592C520.589 65.848 520.349 65.2 519.869 64.672C519.365 64.144 518.717 63.88 517.901 63.88C517.085 63.88 516.437 64.144 515.957 64.672C515.453 65.2 515.213 65.848 515.213 66.592C515.213 67.384 515.453 68.032 515.957 68.56C516.437 69.088 517.085 69.352 517.901 69.352C518.717 69.352 519.365 69.088 519.869 68.56C520.349 68.032 520.589 67.384 520.589 66.592Z" fill="#FBFBFB"/>
<rect width="1186" height="15" rx="7.5" fill="#EC8539" fill-opacity="0.2"/>
<rect width="456.61" height="15" rx="7.5" fill="#EC8539"/>
</svg>

<svg fill="none" height="77" viewBox="0 0 1186 77" width="1186" xmlns="http://www.w3.org/2000/svg"><g fill="#fbfbfb"><path d="m32.288 29h-1.704l-4.248 7.464-4.32-7.464h-1.728l5.232 8.976v6.024h1.536v-6.024zm1.2476 9.552v.12c.072 2.52 1.56 4.248 3.84 4.248 1.2 0 2.256-.312 3.192-.912l.288 1.368c-1.008.624-2.184.936-3.528.936-3.144 0-5.304-2.328-5.304-5.712 0-1.728.504-3.144 1.488-4.248s2.208-1.656 3.696-1.656c2.448 0 4.008 1.584 4.008 4.056 0 .648-.072 1.224-.24 1.752zm.096-1.176 6.096-.024c.024-.072.024-.24.024-.48 0-1.728-.936-2.832-2.64-2.832-1.896 0-3.216 1.416-3.48 3.336zm16.9855 3.624c0 1.992-1.68 3.312-3.936 3.312-1.368 0-2.568-.336-3.6-.984l.408-1.368c1.008.672 2.088 1.008 3.24 1.008 1.392 0 2.472-.696 2.472-1.848 0-.264-.048-.48-.168-.696s-.264-.384-.384-.504-.36-.24-.672-.384-.552-.24-.696-.288-.432-.144-.84-.264c-1.92-.576-3.192-1.392-3.192-3.12 0-1.968 1.56-3.168 3.72-3.168 1.176 0 2.28.264 3.336.816l-.432 1.344c-.984-.552-1.992-.816-3-.816-1.344 0-2.208.624-2.208 1.68 0 .24.048.456.168.648.12.216.24.36.36.48s.336.264.648.384c.288.12.528.216.696.288s.456.144.84.264c1.992.576 3.24 1.392 3.24 3.216z"/><path d="m481.168 41.864-8.52-12.864h-1.728v15h1.488v-12.84l8.592 12.984h1.656v-15.144h-1.488zm15.153-3.384c0 1.728-.504 3.12-1.536 4.2s-2.304 1.632-3.864 1.632-2.832-.528-3.816-1.584-1.488-2.448-1.488-4.2c0-1.728.528-3.144 1.56-4.224s2.304-1.608 3.864-1.608 2.832.528 3.816 1.584 1.464 2.448 1.464 4.2zm-1.464.048c0-2.712-1.536-4.488-3.888-4.488-2.304 0-3.864 1.8-3.864 4.44 0 2.712 1.536 4.488 3.888 4.488 2.304 0 3.864-1.8 3.864-4.44z"/><path d="m26.48 65.92c2.28.36 3.528 1.968 3.528 3.792 0 1.464-.528 2.64-1.56 3.48-1.056.864-2.376 1.296-3.96 1.296-1.704 0-3.072-.312-4.056-.912l.36-1.848c.936.648 2.184.96 3.72.96 2.088 0 3.432-1.008 3.432-2.832 0-1.608-1.272-2.448-3.264-2.52-.6-.024-1.344.048-2.208.192v-1.704c3.24-.744 4.848-1.896 4.848-3.432 0-1.44-.984-2.232-2.712-2.232-1.056 0-2.208.456-3.456 1.392l-.696-1.68c1.32-1.032 2.784-1.56 4.368-1.56 2.904 0 4.656 1.536 4.656 3.792 0 1.704-1.296 3.144-3 3.816zm10.8606-4.032c1.344-.552 2.016-1.464 2.016-2.712 0-1.536-1.152-2.52-2.736-2.52-1.8 0-2.856.96-2.856 2.28 0 .288.072.552.216.816s.312.456.48.624.456.36.864.576c.384.216.696.36.912.456.216.12.6.264 1.104.48zm-1.44 1.344c-1.488.48-2.376 1.512-2.376 2.856 0 1.512 1.296 2.52 3.12 2.52 1.896 0 2.928-.816 2.928-2.256 0-.264-.048-.504-.12-.72s-.216-.432-.432-.648-.408-.384-.552-.504-.408-.264-.816-.456-.672-.312-.792-.384c-.144-.072-.456-.192-.96-.408zm2.928-.672c1.848.936 2.76 2.112 2.76 3.552 0 2.4-1.848 4.248-5.04 4.248-3.24 0-5.016-1.704-5.016-4.056 0-1.8 1.44-3.336 2.88-3.72-1.68-.864-2.64-1.824-2.64-3.432 0-2.52 1.896-4.248 4.944-4.248 3.024 0 4.632 1.776 4.632 4.056 0 1.68-1.176 3.048-2.52 3.6zm6.3828 4.728c.432 0 .792.144 1.08.432.288.312.432.672.432 1.08s-.144.768-.432 1.08-.648.48-1.08.48c-.456 0-.816-.168-1.104-.48-.312-.312-.456-.672-.456-1.08s.144-.768.456-1.08c.288-.288.648-.432 1.104-.432zm5.3751-2.448c.792-.072 1.368-.12 1.704-.12 3.144 0 5.16 1.8 5.16 4.608 0 1.512-.504 2.76-1.512 3.72-1.032.96-2.28 1.44-3.768 1.44-1.608 0-3-.336-4.176-1.032l.36-1.944c1.32.744 2.616 1.104 3.84 1.104 1.896 0 3.24-1.272 3.24-3.192 0-1.68-1.296-3-3.384-3-1.056 0-2.04.144-2.952.408l-.528-.48.984-7.704h7.488l.072 1.944h-5.952zm15.5691-6.408c0 2.208-1.56 3.96-3.984 3.96-2.376 0-3.984-1.752-3.984-3.96 0-1.128.36-2.064 1.104-2.856.72-.768 1.68-1.152 2.88-1.152s2.16.384 2.904 1.152c.72.768 1.08 1.728 1.08 2.856zm7.32-3.768-11.952 15.696h-1.512l11.952-15.696zm1.8 11.928c0 1.128-.36 2.064-1.08 2.832-.744.792-1.704 1.176-2.904 1.176s-2.16-.384-2.88-1.152c-.744-.768-1.104-1.728-1.104-2.856 0-2.208 1.584-3.96 3.984-3.96 2.376 0 3.984 1.752 3.984 3.96zm-10.416-8.16c0-.792-.24-1.44-.72-1.968-.504-.528-1.152-.792-1.968-.792s-1.464.264-1.944.792c-.504.528-.744 1.176-.744 1.968 0 .744.24 1.392.744 1.92.48.528 1.128.792 1.944.792s1.464-.264 1.968-.792c.48-.528.72-1.176.72-1.92zm9.12 8.16c0-.744-.24-1.392-.72-1.92-.504-.528-1.152-.792-1.968-.792s-1.464.264-1.944.792c-.504.528-.744 1.176-.744 1.92 0 .792.24 1.44.744 1.968.48.528 1.128.792 1.944.792s1.464-.264 1.968-.792c.48-.528.72-1.176.72-1.968z"/><path d="m470.032 64.12c0-2.184.72-4.152 2.136-5.904 1.416-1.728 3.432-2.904 6.096-3.528l.6 1.872c-3.72.936-5.952 2.808-6.696 5.616l.048.024c1.08-.984 2.352-1.488 3.816-1.488 2.472 0 4.392 1.896 4.392 4.656 0 2.904-2.016 4.992-5.112 4.992-1.656 0-2.928-.6-3.864-1.8-.936-1.176-1.416-2.664-1.416-4.44zm2.088.624c0 2.112 1.296 3.792 3.288 3.792 1.824 0 3.024-1.248 3.024-3.072 0-1.8-1.2-3-2.928-3-1.296 0-2.52.6-3.264 1.272-.072.288-.12.624-.12 1.008zm13.119 5.256h1.944v-11.712l-4.8 1.584.072 1.8 2.784-.888zm6.582-2.712c.432 0 .792.144 1.08.432.288.312.432.672.432 1.08s-.144.768-.432 1.08-.648.48-1.08.48c-.456 0-.816-.168-1.104-.48-.312-.312-.456-.672-.456-1.08s.144-.768.456-1.08c.288-.288.648-.432 1.104-.432zm5.375-2.448c.792-.072 1.368-.12 1.704-.12 3.144 0 5.16 1.8 5.16 4.608 0 1.512-.504 2.76-1.512 3.72-1.032.96-2.28 1.44-3.768 1.44-1.608 0-3-.336-4.176-1.032l.36-1.944c1.32.744 2.616 1.104 3.84 1.104 1.896 0 3.24-1.272 3.24-3.192 0-1.68-1.296-3-3.384-3-1.056 0-2.04.144-2.952.408l-.528-.48.984-7.704h7.488l.072 1.944h-5.952zm15.569-6.408c0 2.208-1.56 3.96-3.984 3.96-2.376 0-3.984-1.752-3.984-3.96 0-1.128.36-2.064 1.104-2.856.72-.768 1.68-1.152 2.88-1.152s2.16.384 2.904 1.152c.72.768 1.08 1.728 1.08 2.856zm7.32-3.768-11.952 15.696h-1.512l11.952-15.696zm1.8 11.928c0 1.128-.36 2.064-1.08 2.832-.744.792-1.704 1.176-2.904 1.176s-2.16-.384-2.88-1.152c-.744-.768-1.104-1.728-1.104-2.856 0-2.208 1.584-3.96 3.984-3.96 2.376 0 3.984 1.752 3.984 3.96zm-10.416-8.16c0-.792-.24-1.44-.72-1.968-.504-.528-1.152-.792-1.968-.792s-1.464.264-1.944.792c-.504.528-.744 1.176-.744 1.968 0 .744.24 1.392.744 1.92.48.528 1.128.792 1.944.792s1.464-.264 1.968-.792c.48-.528.72-1.176.72-1.92zm9.12 8.16c0-.744-.24-1.392-.72-1.92-.504-.528-1.152-.792-1.968-.792s-1.464.264-1.944.792c-.504.528-.744 1.176-.744 1.92 0 .792.24 1.44.744 1.968.48.528 1.128.792 1.944.792s1.464-.264 1.968-.792c.48-.528.72-1.176.72-1.968z"/></g><rect fill="#ec8539" fill-opacity=".2" height="15" rx="7.5" width="1186"/><rect fill="#ec8539" height="15" rx="7.5" width="456.61"/></svg>
